X:1
T:Naul, 12.10.12.10
T:Naul, 12.10.12.10
T:Anonymous, 1859
T:Public Domain Courtesy of the Cyber Hymnal™
C:Anonymous, 1859
Z:Public Domain
Z:Courtesy of the Cyber Hymnal™
%%score ( 1 2 ) ( 3 4 )
L:1/8
Q:1/4=110
M:4/4
K:G
V:1 treble 
V:2 treble 
V:3 bass 
V:4 bass 
V:1
 [DG]4 | [DF]2 [B,G]2 [EA]2 [DF]2 | [DG]4 [GB]4 | [FA]2 [GB]2 [Ac]2 [FA]2 | [GB]4 [FA]4 | %5
 [EG]2 [EA]2 [^DF]2 [EG]2 | [=DB]2 [DG]2 [DF]2 [^CE]2 | D4 |: [DA]4 | [DB]2 [Dd]2 [Ec]2 [DB]2 | %10
 [DA]4 :| [DB]4 | [B,G]2 [CE]2 [EA]2 [DF]2 | [B,G]2 [Ec]2 [DB]2 [CA]2 | [B,G]4 |] %15
V:2
 x4 | x8 | x8 | x8 | x8 | x8 | x8 | D4 |: x4 | x8 | x4 :| x4 | x8 | x8 | x4 |] %15
V:3
 [G,B,]4 | [D,A,]2 [E,G,]2 [C,C]2 [D,A,]2 | [G,B,]4 [G,,D]4 | [D,D]2 [G,D]2 [C,E]2 [D,D]2 | %4
 [G,,D]4 [D,D]4 | [E,B,]2 [A,,C]2 [B,,B,]2 [E,B,]2 | [F,A,]2 [G,B,]2 A,2 [A,,G,]2 | [D,F,]4 |: %8
 [D,F,]4 | G,2 [B,,G,]2 [C,G,]2 [G,,G,]2 | [D,F,]4 :| [B,,F,]4 | [E,G,]2 [C,G,]2 [A,,C]2 [D,A,]2 | %13
 [E,G,]2 [C,G,]2 [D,G,]2 [D,F,]2 | [G,,G,]4 |] %15
V:4
 x4 | x8 | x8 | x8 | x8 | x8 | x4 A,2 x2 | x4 |: x4 | G,2 x6 | x4 :| x4 | x8 | x8 | x4 |] %15

